X:1
T:Rotava e pur
T:Rotava e pur
T:Orlende de Lassus
C:Orlende de Lassus
%%score [ 1 2 [ 3 4 ] ]
L:1/8
Q:1/4=80
M:2/2
K:C
V:1 treble nm="Superius" snm="S"
V:2 treble nm="Altus" snm="A"
V:3 treble-8 nm="Tenor 1" snm="T 1"
V:4 treble-8 nm="Tenor 2" snm="T 2"
V:1
 z8 | z4 d4 | e2 d2 ^c2 d2 | BGAA cB z d | e2 d2 ^c2 d2 | ee f2 e2 d2- |"^#" d2 c2 d4 | %7
w: |Ro-|ta- va'et e pur|ver di pu- ro fo- co, ro-|ta- va e pur|ver di pu- ro fo-|* * co,|
 z2 d2 d2 d2 | e2 c2 f3 f | dd e2 c4 | A2 d3 dBB | c8 | B4 z4 | z2 g3 ^f g2 | c3 B c2 e2 | %15
w: il vol- to'a-|mor, nel'- l'u- no'e|l'al- tro so- le,|nel'- l'u- ne l'al- tro|so-|le|da si- re-|na di dio- sciol-|
 e2 ^f2 g4- | g4 ^f4 | z2 g4 e2 | e4 c4 | d4 c2 A2 | A2 G2 A4 | A2 A3 G FE | D2 d3 c BA | %23
w: se la vo-|* ce,|mass' il|pas- so|da dea per|quel- la ri-|va ri- * * *|sa al _ _ _|
 G2 G2 AB cd | ef g4 d2 | d2 e2 z2 c2 | c2 c2 _B4 | A8 | f4 d4- | d2 d2 c4 | c4 z4 | z4 z2 A2 | %32
w: _ suo ri- * * *|* * * so|l'a- ria, e'us-|cir dell' her-|be,|fia- ti'e|_ so- spi-|ri,|fia-|
 F2 G2 A4- | A2 B2 ^c3 d | e2 ^f2 g4 | f2 d3 c A2 | B8 |] %37
w: ti'e so- spi-|* r'in piu _|_ tran- quil-|lo sta- * *|to.|
V:2
 z8 | z8 | G4 A4 | G2 ^F2 G2 A2 | A8 | c2 c2 B4 | A4 A4 | A4 B2 B2 | c2 A2 A3 A | BB c2 GG A2- | %10
w: ||Ro- ta-|va'et e pur ver|di|pu- ro fo-|* co,|il vol- to'a-|mor, nel'- l'u- no'e|l'al- tre so- le, nel'- l'u-|
 ADAA B2 GG | GGEE A4 | D2 G3 G G2 | GGcc BA G2 | A A2 ^G AAEE- | EAAA B2 Bc | BG G2 A4 | %17
w: * no'e l'al- tro so- le, nel'-|l'u- no'e l'al- tro so-|le, de si- re-|na di dio sciol- se la vo-|ce, da si- re- na di dio|_ sciol- se la vo- ce, sciol-|se la vo- ce,|
 z2 B4 c2- | c2 G2 A2 A2 | DE FG A2 F2 | E2 D2 E4 | ^F4 z2 A2- | AG FE D2 G2- | GF ED C2 F2 | %24
w: mass' il|_ pas- so da|dea _ _ _ _ per|quel- la ri-|va ri-|* * * * se al|_ _ _ _ _ suo|
 GF EF G3 G | ^F2 G2 z2 G2 | A2 G2 G4 | ^F8 | A4 _B4- | B2 _B2 A2 A2- |"^b" A2 G2 B2 A2- | %31
w: ri- * * * * so|l'a- ria, e'us-|cir dell' her-|be,|fia- ti'e|_ so- spi- ri'in|_ piu tran- quil-|
 A2 G2 FD F2- | FE D4 ^C2 | z2 D2 A2 E2 | E2 z D D2 G2 |"^#" A2 G4 F2 | G8 |] %37
w: * lo sta- * *|* * * to,|fia- ti'e so-|spi- ri'in piu tran|quil- lo sta-|to.|
V:3
 d4 e2 d2 | ^c2 d2 d2 B2 | c2 d2 e2 fd | ee d2 G g2 f | e2 ff e2 f2 | g2 a2 g3 f | e4 d2 f2 | %7
w: Ro- ta- va'et|e pur ver di|pu- ro fo- co, di|pu- ro fo- co, ro- ta-|va e pur ver di|pu- ro fo- *|* co, il|
 e2 ^f2 g4 | c2 f3 fdd | g4 e2 e2 | ^f3 f gg d2 | eegg f2 e2 | g2 d2 e3 d | e2 e2 d2 de | %14
w: vol- to'a- mor,|nel'- l'u- no'e l'al- tro|so- le, nel'-|l'u- no'e l'al- tro so-|le, nel'- l'u- no'e l'al- tro|so- le, de si-|re- na di dio sciol-|
 ee e2 A c2 B | ^c2 d4 e2 | dBcB d2 d2 | z2 d4 g2- | g2 e4 f2- | f2 d2 e2 d2 | ^c2 d4 c2 | %21
w: se la vo- ce, sciol- se|la vo- *|ce, sciol- se la vo- ce,|mass' il|_ pas- so|_ da dea- per|quel- la ri-|
 d4 a3 g | fe d2 g3 f | ed cd e2 A2 | c4 B4 | A2 c2 z2 e2 | f2 e2 d4 | d4 z2 a2- | a2 f4 f2 | f8 | %30
w: va ri- *|* * se al _|_ _ _ _ _ suo|ri so|l'a- ria, e'us-|cir dell' her-|be, fia-|* ti'e so-|spi-|
 e4 f4 | e2 d4 c2 | d4 e2 e2 | ^f2 g2 e2 a2 | a2 a2 gf ed | c2 B2 d4 | d8 |] %37
w: ri'in piu|tran- quil- lo|sta- to, fia-|ti'e so- spi- ri'in|piu tran- quil- * * *|* lo sta-|to.|
V:4
 z4 z2 G2 | A2 G2 ^F2 G2 | Cc_BB A2 D2 | z2 D2 E2 D2 | ^C2 D2 A2 d2 | c2 F2 G4 | A4 D2 d2 | %7
w: Ro-|ta- va'et e pur|ver- di pu- ro fo- co,|ro- ta- va|e pur ver di|pu- ro fo-|* co, il|
 ^c2 d2 G4 | z8 | G2 c3 cAA | d4 G2 G2 | c3 c FF A2 | G4 c3 B | c2 cc GdBc | A2 E2 z A2 ^G | %15
w: vol- to'a- mor,||nel'- l'u- no'e l'al- tro|so- le, nel'-|l'u- no'e l'al- tro so-|le, de si-|re- na di dio sciol- se la|vo- ce, sciol- se|
 A2 DD GGEC | G>F E2 D4 | z2 G4 C2 | c4 A4 | _B4 A2 D2 |"^b" A2 B2 A4 | D8 | d3 c BA G2 | %23
w: la vo- ce, sciol- se la vo-|* * * ce,|mass' il|pas- so|da dea- per|quel- la ri-|va|ri- * * * se|
 c3 B AG F2 | C2 CD EFGG | D2 C2 z2 c2 | F2 C2 G4 | D4 d4- | d4 _B4- | B2 _B2 F4 | c4 d4 | %31
w: al _ _ _ _|suo ri- * * * * so|l'a- ria, e'us-|cir dell' her-|be, fia-|* ti'e|_ so- spi-|ri'in piu|
 c2 _B4 A2 |"^b" B4 A2 A2 | d2 G2 A3 B |"^-natural" ^c2 d2 B2 c2 | F2 G2 D4 | G8 |] %37
w: tran- quil- lo|sta- to, fia-|ti'e so- spi- *|* r'in piu tran-|quil- lo sta-|to.|

